src/symbolic/apps/evince-symbolic.svg

<svg xmlns="http://www.w3.org/2000/svg" width="16" height="16"><path d="M3 1C2 1 2 2 2 2v8.244l.002-.002C3.361 8.527 5.512 7 9 7c2.118 0 3.742.565 5 1.39V5l-4-4H3zM2 13.756V15c0 1 1 1 1 1h1.684A8.355 8.355 0 0 1 2 13.756z" fill="#444"/><path d="M9 8c-4 0-5.845 2-7 4 1.155 2 3 4 7 4s5.845-2 7-4c-1.155-2-3-4-7-4zm0 1.5a2.5 2.5 0 0 1 2.5 2.5A2.5 2.5 0 0 1 9 14.5 2.5 2.5 0 0 1 6.5 12 2.5 2.5 0 0 1 9 9.5zM9 11a1 1 0 0 0-1 1 1 1 0 0 0 1 1 1 1 0 0 0 1-1 1 1 0 0 0-1-1z" fill="#444"/></svg>

<svg xmlns="http://www.w3.org/2000/svg" width="16" height="16" version="1.1">
 <path style="fill:#444444" d="M 3 1 C 2 1 2 2 2 2 L 2 10.244 C 2 10.244 2.002 10.242 2.002 10.242 C 3.361 8.527 5.5115 7 9 7 C 11.118 7 12.742 7.5654 14 8.3906 L 14 5 L 10 1 L 3 1 z M 2 13.756 L 2 15 C 2 16 3 16 3 16 L 4.6836 16 C 3.5478 15.405 2.6748 14.608 2 13.756 z"/>
 <path style="fill:#444444" d="M 9,8 C 5,8 3.155,10 2,12 3.155,14 5,16 9,16 13,16 14.845,14 16,12 14.845,10 13,8 9,8 Z M 9,9.5 A 2.5,2.5 0 0 1 11.5,12 2.5,2.5 0 0 1 9,14.5 2.5,2.5 0 0 1 6.5,12 2.5,2.5 0 0 1 9,9.5 Z M 9,11 A 1,1 0 0 0 8,12 1,1 0 0 0 9,13 1,1 0 0 0 10,12 1,1 0 0 0 9,11 Z"/>
</svg>
